icons/1_Primary/Bohemia Interactive.svg

<svg width="1024" height="1024" viewBox="0 0 1024 1024" fill="none" xmlns="http://www.w3.org/2000/svg">
<g clip-path="url(#clip0_2_1701)">
<path d="M512 1024C794.77 1024 1024 794.77 1024 512C1024 229.23 794.77 0 512 0C229.23 0 0 229.23 0 512C0 794.77 229.23 1024 512 1024Z" fill="#98DC9A"/>
<path d="M691.92 512L692.79 509.38C709.25 455.64 702.69 405.84 674.15 369.29C653.102 342.767 622.945 325.017 589.54 319.49L635.42 203H600.32C600.32 203 583.57 257.47 563.48 316.88C556.591 316.517 549.688 316.517 542.8 316.88C483.408 321.442 426.817 343.997 380.57 381.54C345.107 407.05 316.297 440.713 296.57 479.69H325.7C342.317 448.106 365.503 420.446 393.7 398.57C436.506 363.789 488.86 342.818 543.84 338.43H556.2C553.87 345.27 551.39 351.97 549.06 358.67C539.89 384.45 518.06 444.88 493.58 512.16H412.9L376.49 563.42C411.093 552.921 446.655 545.886 482.65 542.42C463.43 595.28 443.65 649.75 427.89 693.29C378.81 696.06 334.98 681.64 307.75 650.62C295.514 637.35 287.021 621.068 283.14 603.44L271.34 592.37C272.43 618.138 281.385 642.954 297 663.48C311.666 680.798 330.113 694.517 350.918 703.581C371.722 712.645 394.331 716.812 417 715.76H419.18L396 781L410.56 769.79L432.26 715.18C490.029 709.767 544.931 687.483 590.13 651.1C631.989 619.314 664.819 577.146 685.37 528.77H801.29L812.65 512.61L691.92 512ZM581.54 340.33C611.207 344.25 638.277 359.295 657.27 382.42C681.27 413.42 686.4 456.25 671.83 503.15C670.96 506.06 669.94 509.15 668.92 512.03H513.38L581.54 340.33ZM577.17 634.21C538.125 665.517 491.32 685.649 441.74 692.46L502 540.57C543.21 535.91 595.93 531.83 662.19 529.94C642.549 570.965 613.401 606.712 577.17 634.21Z" fill="white"/>
</g>
<defs>
<clipPath id="clip0_2_1701">
<rect width="1024" height="1024" fill="white"/>
</clipPath>
</defs>
</svg>

<svg xmlns="http://www.w3.org/2000/svg" width="1024" height="1024" fill="none">
   <g clip-path="url(#a)">
      <path fill="#98DC9A" d="M512 1024c282.77 0 512-229.23 512-512S794.77 0 512 0 0 229.23 0 512s229.23 512 512 512Z"/>
      <path fill="#fff" d="m691.92 512 .87-2.62c16.46-53.74 9.9-103.54-18.64-140.09a136.45 136.45 0 0 0-84.61-49.8L635.42 203h-35.1s-16.75 54.47-36.84 113.88a196.492 196.492 0 0 0-20.68 0 293.005 293.005 0 0 0-162.23 64.66 272.48 272.48 0 0 0-84 98.15h29.13a249.993 249.993 0 0 1 68-81.12 272.464 272.464 0 0 1 150.14-60.14h12.36c-2.33 6.84-4.81 13.54-7.14 20.24-9.17 25.78-31 86.21-55.48 153.49H412.9l-36.41 51.26a545.83 545.83 0 0 1 106.16-21c-19.22 52.86-39 107.33-54.76 150.87-49.08 2.77-92.91-11.65-120.14-42.67a101.93 101.93 0 0 1-24.61-47.18l-11.8-11.07A126.262 126.262 0 0 0 297 663.48a148.242 148.242 0 0 0 120 52.28h2.18L396 781l14.56-11.21 21.7-54.61a295.774 295.774 0 0 0 157.87-64.08 301.743 301.743 0 0 0 95.24-122.33h115.92l11.36-16.16-120.73-.61ZM581.54 340.33a118.001 118.001 0 0 1 75.73 42.09c24 31 29.13 73.83 14.56 120.73-.87 2.91-1.89 6-2.91 8.88H513.38l68.16-171.7Zm-4.37 293.88a276.693 276.693 0 0 1-135.43 58.25L502 540.57c41.21-4.66 93.93-8.74 160.19-10.63a285.879 285.879 0 0 1-85.02 104.27Z"/>
   </g>
   <defs>
      <clipPath id="a">
         <path fill="#fff" d="M0 0h1024v1024H0z"/>
      </clipPath>
   </defs>
</svg>
